icons/default/Design.svg

<path d="M21 2.625H20.25V3.375H21V2.625Z" fill="currentColor" />
<path
	d="M23.625 1.125H0.375C0.167906 1.125 0 1.29291 0 1.5V22.5C0 22.7071 0.167906 22.875 0.375 22.875H10.875H13.125H23.625C23.8321 22.875 24 22.7071 24 22.5V1.5C24 1.29291 23.8321 1.125 23.625 1.125ZM0.75 1.875H4.5V4.125H0.75V1.875ZM12.75 22.125H11.25V18.75H12.75V22.125ZM12.7774 18H11.2226C11.0434 16.8075 10.0215 16.1625 9.20513 15.8869L11.625 11.8537V15H12.375V11.8537L14.7949 15.8869C13.9774 16.1606 12.957 16.8075 12.7774 18ZM11.25 10.125V8.625H12.75V10.125H11.25ZM23.25 22.125H13.5V18.375C13.5 16.8446 15.3585 16.5083 15.4365 16.4948C15.4827 16.487 15.5271 16.4707 15.5673 16.4466C15.745 16.3402 15.8028 16.1099 15.6964 15.9323L12.662 10.875H13.125C13.3321 10.875 13.5 10.7071 13.5 10.5V10.1939C14.5373 10.4109 17.1494 11.217 17.5675 13.875H16.875C16.6679 13.875 16.5 14.0429 16.5 14.25V16.5C16.5 16.7071 16.6679 16.875 16.875 16.875H19.125C19.3321 16.875 19.5 16.7071 19.5 16.5V14.25C19.5 14.0429 19.3321 13.875 19.125 13.875H18.3255C18.1421 12.5066 17.4634 11.5458 16.6552 10.875H18C18.2071 10.875 18.375 10.7071 18.375 10.5V8.25C18.375 8.04291 18.2071 7.875 18 7.875H15.75C15.5429 7.875 15.375 8.04291 15.375 8.25V9H13.5V8.25C13.5 8.04291 13.3321 7.875 13.125 7.875H10.875C10.6679 7.875 10.5 8.04291 10.5 8.25V9H8.625V8.25C8.625 8.04291 8.45709 7.875 8.25 7.875H6C5.79291 7.875 5.625 8.04291 5.625 8.25V10.5C5.625 10.7071 5.79291 10.875 6 10.875H7.34489C6.53662 11.5458 5.85787 12.5066 5.6745 13.875H4.875C4.66791 13.875 4.5 14.0429 4.5 14.25V16.5C4.5 16.7071 4.66791 16.875 4.875 16.875H7.125C7.33209 16.875 7.5 16.7071 7.5 16.5V14.25C7.5 14.0429 7.33209 13.875 7.125 13.875H6.4328C6.85195 11.2255 9.46233 10.4144 10.5 10.1949V10.5C10.5 10.7071 10.6679 10.875 10.875 10.875H11.338L8.30362 15.9323C8.27967 15.9722 8.26336 16.0163 8.25558 16.0622C8.22084 16.2664 8.35819 16.46 8.56238 16.4948C8.6415 16.5083 10.5 16.8446 10.5 18.375V22.125H0.75V4.875H23.25V22.125ZM14.6268 9.75H15.375V10.0629C15.1168 9.93834 14.8639 9.83498 14.6268 9.75ZM16.125 10.125V8.625H17.625V10.125H16.125ZM17.625 14.625H18.375H18.75V16.125H17.25V14.625H17.625ZM9.37327 9.75C9.13617 9.83503 8.88323 9.93839 8.625 10.063V9.75H9.37327ZM7.875 8.625V10.125H6.375V8.625H7.875ZM6.375 14.625H6.75V16.125H5.25V14.625H5.625H6.375ZM23.25 4.125H5.25V1.875H23.25V4.125Z"
	fill="currentColor" />
<path d="M2.25 2.625H1.5V3.375H2.25V2.625Z" fill="currentColor" />
<path d="M3.75 2.625H3V3.375H3.75V2.625Z" fill="currentColor" />
<path d="M22.5 2.625H21.75V3.375H22.5V2.625Z" fill="currentColor" />

<path d="M21 2.625h-.75v.75H21v-.75Z" fill="currentColor"/><path d="M23.625 1.125H.375A.375.375 0 0 0 0 1.5v21c0 .207.168.375.375.375h23.25A.375.375 0 0 0 24 22.5v-21a.375.375 0 0 0-.375-.375ZM.75 1.875H4.5v2.25H.75v-2.25Zm12 20.25h-1.5V18.75h1.5v3.375ZM12.777 18h-1.554c-.18-1.192-1.202-1.837-2.018-2.113l2.42-4.033V15h.75v-3.146l2.42 4.033c-.818.274-1.838.92-2.018 2.113Zm-1.527-7.875v-1.5h1.5v1.5h-1.5Zm12 12H13.5v-3.75c0-1.53 1.858-1.867 1.937-1.88a.376.376 0 0 0 .26-.563l-3.035-5.057h.463a.375.375 0 0 0 .375-.375v-.306c1.037.217 3.65 1.023 4.067 3.681h-.692a.375.375 0 0 0-.375.375v2.25c0 .207.168.375.375.375h2.25a.375.375 0 0 0 .375-.375v-2.25a.375.375 0 0 0-.375-.375h-.8c-.183-1.368-.862-2.33-1.67-3H18a.375.375 0 0 0 .375-.375V8.25A.375.375 0 0 0 18 7.875h-2.25a.375.375 0 0 0-.375.375V9H13.5v-.75a.375.375 0 0 0-.375-.375h-2.25a.375.375 0 0 0-.375.375V9H8.625v-.75a.375.375 0 0 0-.375-.375H6a.375.375 0 0 0-.375.375v2.25c0 .207.168.375.375.375h1.345c-.808.67-1.487 1.632-1.67 3h-.8a.375.375 0 0 0-.375.375v2.25c0 .207.168.375.375.375h2.25A.375.375 0 0 0 7.5 16.5v-2.25a.375.375 0 0 0-.375-.375h-.692c.419-2.65 3.03-3.46 4.067-3.68v.305c0 .207.168.375.375.375h.463l-3.034 5.057a.374.374 0 0 0 .258.563c.08.013 1.938.35 1.938 1.88v3.75H.75V4.875h22.5v17.25ZM14.627 9.75h.748v.313a7.724 7.724 0 0 0-.748-.313Zm1.498.375v-1.5h1.5v1.5h-1.5Zm1.5 4.5h1.125v1.5h-1.5v-1.5h.375ZM9.373 9.75a7.73 7.73 0 0 0-.748.313V9.75h.748ZM7.875 8.625v1.5h-1.5v-1.5h1.5Zm-1.5 6h.375v1.5h-1.5v-1.5h1.125Zm16.875-10.5h-18v-2.25h18v2.25Z" fill="currentColor"/><path d="M2.25 2.625H1.5v.75h.75v-.75Z" fill="currentColor"/><path d="M3.75 2.625H3v.75h.75v-.75Z" fill="currentColor"/><path d="M22.5 2.625h-.75v.75h.75v-.75Z" fill="currentColor"/>
